X:1
T:Puttering About
C:copyright 1997 Kaubells
R:Reel
E:24
M:C
K:D
"D"A2d2c2B2|A6 AB|"F"=cBAG =F2A2|"C"E6 E2|*
E:16
"F"=F2A2 (3G"G"AG) F2|"C"E2G2 "Am7"=c2>c2|"B7"B2^F2^G2A2|1"...E"B4e4:|2"...E"B4 "E7"E4:|*
"A"^cded c2A2|^cded c2A2|"G"B=cdc B2G2|"Em"B=cdc B2G2|*
E:24
"A"^cded c2A2|e2e2 .a4|"G"GABd "Em"E2>G2|"A"A8:|*
\bigskip
